X:5
T:Den fan spelte p{\aa} Skjeft{\aa}sen
R:polska L1
H:efter Jon Andersson (1846-1924), L\"anserud, Norra Finnskoga
A:V\"armland
Z:id:hn-L1-5
M:3/4
K:Am
f2 Pf>e d2|(3efe (3ded c2|c>PB A>^G AB|(3^cAc (3B^GB A2|
f2 Pf>e d2|(3efe (3ded c2|c>PB A>^G (3AB^c|A2 A2-A2:|
|:e>=f e>d e^f|^g>a (3b^gb a2|=g>P^f e>^d ef|(3geg (3^fdf e2|
e>=f e>d e^f|^g>a (3b^gb a2|=g>P^f e>^d (3e^f^g|e2 e2-e2:|
<end>
<start>
